!!!!SEGMENT: pl-sa--549-a-ix-29--008_anonim--cotillion.krn
!!!cenid: 18xx:464
!!!COM: Anonim
!!!COM-rismid: pe30004985
!!!CDT:
!!!CNT:
!!!OTL: Cotillion
!!!PDT:
!!!AGN: Secular; Cotillion
!!!SMS-siglum: PL-SA
!!!SMS-shelfmark: 549/A IX 29
!!!SMS-shelfwork: 008 W
!!!SMS-variant:
!!!SMS-altvar:
!!!NIFC-rismid: 1001068346
!!!URL-scan: http://bc.bdsandomierz.pl/dlibra/publication/1441/edition/1409/content
!!!ONB-nifc: Str. 8 (s. 1-5)
**kern	**kern
*part1	*part1
*staff2	*staff1
*Ipiano	*Iempty
*I"Piano	*
*I'P-no	*
*ICklav	*
*!!!key B	*
*clefF4	*clefG2
*k[b-e-]	*k[b-e-]
*B-:	*B-:
*M3/8	*M3/8
*>[A,A,B,B,C,C,D,D]	*
*>A	*
8r	16dd\LL
.	16ee-\JJ
=1	=1
8B-\ 8BB-\	(8.ff\L
4d\ 4B-\ 4F\	.
.	16bb-\L
.	16aa\
.	16gg\JJ)
=2	=2
8F/ 8FF/	(8.gg\L
4e-\ 4c\ 4A\ 4F\	.
.	16ff\L
.	16cc\
.	16dd\JJ)
=3	=3
*rep	*
8F/ 8FF/	(8.ff\L
4e-\ 4c\ 4A\ 4F\	.
.	16ee-\L
.	16g\
.	16a\JJ)
*Xrep	*
=4	=4
8B-/ 8BB-/	(8.cc\L
4d\ 4B-\ 4F\	.
.	16b-\L
.	16dd\
.	16ee-\JJ)
=5	=5
*rep	*
8B-\ 8BB-\	(8.ff\L
4d\ 4B-\ 4F\	.
.	16bb-\L
.	16aa\
.	16gg\JJ)
*Xrep	*
=6	=6
8F\	(8.gg\L
!	!LO:SIC:o:s:v:t=dwie pionowe kreseczki nad nutą
8e-\ 8c\ 8F\	.
.	16ff\L
8ryy	16cc\
.	16dd\JJ)
=7	=7
!LO:TX:t=P:problem: mixed beam	!
!	!LO:SIC:o:s:v:t=znak dzielący takt w "połowie"
8d\L 8B-\	4b-\
!	!LO:SIC:o:s:v:t=znak dzielący takt w "połowie"
8BB-/J	.
!	!LO:SIC:o:s:v:t=rytm o=3x triola ćwierćnutowa
8ryy	(24dd\LL
.	24cc\
.	24bn\JJ)
=8	=8
!	!LO:SIC:o:s:v:t=rytm o=8
8C\L	(8.cc\L
!	!LO:SIC:o:s:v:t=dwie pionowe kreseczki nad nutą.
8B-\J 8G\ 8E-\	.
.	16bb-\L
8ryy	16aa\
.	16gg\JJ)
=9	=9
8F\L	(8.gg#X\L
!	!LO:SIC:o:s:v:t=dwie pionowe kreseczki nad nutą
8c\J 8A\	.
.	16aa\L
8ryy	16ee-\
.	16ff\JJ)
=10	=10
8C\L	8.aa\L
!	!LO:SIC:o:s:v:t=dwie pionowe kreseczki nad nutą
8c\J 8B-\ 8G\	.
.	16gg\L
8ryy	16dd\
.	16een\JJ
=11	=11
8F\L	8.gg\L
!	!LO:SIC:o:s:v:t=dwie pionowe kreseczki nad nutą
8c\J 8A\	.
.	16ff\L
8ryy	16een\
.	16dd\JJ
=12	=12
4.ryy	8.cc\L
.	16bb-\L
.	16aa\
.	16gg\JJ
!!LO:LB:g=original
=13	=13
4.ryy	8.gg#X\L
.	16aa\L
.	16ee-\
.	16ff\JJ
=14	=14
4.ryy	8.aa\L
.	16gg\L
.	16dd\
.	16een\JJ
=15	=15
!	!LO:SIC:o:s:v:t=znak dzielący takt na "pół"
!	!LO:SIC:o:s:v:t=znak dzielący takt na "pół"
4A\ 4F\	4ff\
=:|!|:	=:|!|:
*>B	*
!LO:N:vis=4	!
8F/ 8FF/	8ff\
=16	=16
8F/ 8FF/	8.gg\L
4e-\ 4A\ 4F\	.
.	16ff\L
.	16ee-\
.	16dd\JJ
=17	=17
8B-/ 8BB-/	16b-\LL
.	16dd\
4d\ 4B-\ 4F\	16ff\
.	16bb-\J
.	8ddd\J
=18	=18
!	!LO:SIC:o:s:v:t= ktoś rozpisujący ten takt w ogóle nie określił rytmu
.	8qqddd/
8F/ 8FF/	16ccc\LL
.	16bbn\
!	!LO:SIC:o:s:v:t=dwie pionowe kreseczki nad nutą
8e-\ 8c\ 8G\ 8F\	16ccc\
.	16eee-\
8ryy	16aa\
.	16ccc\JJ
=19	=19
8B-/ 8BB-/	8.ccc\L
!	!LO:SIC:o:s:v:t=dwie pionowe kreseczki nad nutą
8d\ 8B-\ 8F\	.
.	(16bb-\J
8ryy	24aa\LL
.	24ccc\
.	24bb-\JJ)
=20	=20
8F/ 8FF/	8.gg\L
8e-\ 8A\ 8F\	.
.	16ff\L
8ryy	16ee-\
.	16cc\JJ
=21	=21
8B-\ 8BB-\	16b-\LL
.	16dd\
4d\ 4B-\ 4F\	16ff\
.	16bb-\J
.	8ddd\J
=22	=22
.	8qqddd/
8F/ 8FF/	16ccc\LL
.	16bbn\
!	!LO:SIC:o:s:v:t=dwie pionowe kreseczki nad nutą
8e-\ 8A\ 8F\	16ccc\
.	16eee-\
8ryy	16aa\
.	16ccc\JJ
=23	=23
!LO:TX:t=P:problem: mixed beam	!
!	!LO:SIC:o:s:v:t=znak dzielący takt na "pół"
8d\L 8B-\	(4bb-\
!	!LO:SIC:o:s:v:t=znak dzielący takt na "pół"
8BB-/J	.
=:|!|:	=:|!|:
*>C	*
!	!LO:N:vis=4
8r	8dd\)
=24	=24
!LO:TX:t=P:problem: mixed beam	!
8GG/L	8.bb-\L
8B-\ 8D\	.
.	16aa\K
!	!LO:TX:a:t=tro
8B-\J 8D\	8gg\J
=25	=25
!LO:TX:t=P:problem: mixed beam	!
8GG/L	8.gg\L
8B-\ 8D\	.
.	16ff#X\K
8B-\J 8D\	8gg\J
!!LO:LB:g=original
=26	=26
!LO:TX:t=P:problem: mixed beam	!
8FF#X/L	8.ccc\L
8A\ 8D\	.
.	16ddd\K
8A\J 8D\	8ccc#X\J
=27	=27
*rep	*
!LO:TX:t=P:problem: mixed beam	!
8FF#X/L	4bb-\
8A\ 8D\	.
8A\J 8D\	8aa\
*Xrep	*
=28	=28
!LO:TX:t=P:problem: mixed beam	!
8GG/L	8.bb-\L
!	!LO:SIC:o:s:v:t=dwie pionowe kreseczki nad nutą
8B-\J 8D\	.
.	16aa\K
8ryy	8gg\J
=29	=29
*rep	*
!LO:TX:t=P:problem: mixed beam	!
!	!LO:SIC:o:s:v:t=niezrozumiałe litery
8GG/L	8gg\L
!	!LO:SIC:o:s:v:t=dwie pionowe kreseczki nad nutą
8B-\J 8D\	8ff#X\
8ryy	8gg\J
*Xrep	*
=30	=30
!LO:TX:t=P:problem: mixed beam	!
8FF#X/L	8.eee-\L
!	!LO:SIC:o:s:v:t=dwie pionowe kreseczki nad nutą
8A\J 8D\	.
.	16bb-\K
8ryy	8ccc#X\J
=31	=31
*rep	*
!LO:TX:t=P:problem: mixed beam	!
8FF#X/L	4bb-\
!	!LO:SIC:o:s:v:t=dwie pionowe kreseczki nad nutą
8A\J 8D\	.
8ryy	8aa\
*Xrep	*
=32	=32
!LO:TX:t=P:problem: mixed beam	!
8GG/L	8.bb-\L
8B-\J 8D\	.
.	16ccc\K
8ryy	8gg\J
=33	=33
*rep	*
!LO:TX:t=P:problem: mixed beam	!
!	!LO:TX:a:t=tri
8GG/L	8gg\L
8B-\J 8D\	8ff#X\
8ryy	8gg\J
*Xrep	*
=34	=34
8C\L	8.aa\L
8A\ 8E-\	.
.	16bb-\L
8A\J 8E-\	16aa\
.	16ff#X\JJ
=35	=35
*rep	*
8C\L	8dd\L
8A\ 8E-\	16ee-\L
.	16ff#X\
8A\J 8E-\	16gg\
.	16aa\JJ
*Xrep	*
=36	=36
!	!LO:SIC:o:s:v:t=bardzo pokreślony takt
8D/L 8GG/ 8FF/	8.bb-\L
!	!LO:SIC:o:s:v:t=dwie pionowe kreseczki nad nutą
8B-/J 8G/ 8C/	.
.	16ccc\K
8ryy	8gg\J
=37	=37
*rep	*
!	!LO:SIC:o:s:v:t=bardzo pokreślony takt
!	!LO:TX:a:t=tri
8D/L 8GG/ 8FF/	8gg\L
!	!LO:SIC:o:s:v:t=dwie pionowe kreseczki nad nutą
8B-/J 8G/ 8C/	8ff#X\
8ryy	8gg\J
*Xrep	*
=38	=38
8C\L	8.ccc\L
8A\ 8E-\	.
.	16ddd\K
8A\J 8E-\	8eee-\J
=39	=39
*rep	*
8C\L	8.eee-\L
8A\ 8E-\	.
.	16ddd\K
8A\J 8E-\	8ccc\J
*Xrep	*
=40	=40
8D\L	8ddd\L
8B-\ 8G\	8bb-\
8B-\J 8G\	8gg\J
=41	=41
8D\L	8eee-\L
!	!LO:SIC:o:s:v:t=dwie pionowe kreseczki nad nutą
8c\J 8A\	8bb-\
8ryy	8ff#X\J
=42	=42
8D\L	4.aa\
!	!LO:SIC:o:s:v:t=dwie pionowe kreseczki nad nutą
8c\J 8F#X\	.
8ryy	.
!!LO:LB:g=original
=43	=43
!LO:TX:t=P:problem: mixed beam	!
8B-\L 8G\	8gg\
!	!LO:SIC:o:s:v:t=znak dzielący takt na "pół"
!	!LO:SIC:o:s:v:t=znak dzielący takt na "pół"
8GG/J	8r
=:|!|:	=:|!|:
*>D	*
8r	(24dd\LL
.	24ee-\
.	24een\JJ)
=44	=44
8F/ 8FF/	8.gg\L
4e-\ 4c\ 4A\ 4F\	.
.	16ff\L
.	16ee-\
.	16cc\JJ
=45	=45
8B-/ 8BB-/	8.ee-\L
4d\ 4B-\ 4F\	.
.	16dd\L
.	16b-\
.	16f\JJ
=46	=46
!	!LO:SIC:o:s:v:t=rytm o=2x4
8F/ 8FF/	8.dd/L
8e-\ 8c\ 8A\ 8F\	.
.	16cc/L
8ryy	16a/
.	16f/JJ
=47	=47
.	8qcc/
8F\L	16b-\LL
.	16a\
8d\ 8B-\	16b-\
.	16cc\
8d\J 8B-\	16dd\
.	16ee-\JJ
=48	=48
8F\L	16gg\LL
.	16ff\
8e-\ 8c\ 8A\	16een\
.	16ff\
8e-\J 8c\ 8A\	16ee-X\
.	16cc\JJ
=49	=49
8F\L	16ee-\LL
.	16dd\
!	!LO:SIC:o:s:v:t=dwie pionowe kreseczki nad nutą
8d\J 8B-\	16cc#X\
.	16dd\
8ryy	16b-\
.	16a\JJ
=50	=50
8F\L	16dd/LL
.	16cc/
!	!LO:SIC:o:s:v:t=dwie pionowe kreseczki nad nutą
8e-\J 8c\ 8A\	16bn/
.	16cc/
8ryy	16a/
.	16f/JJ
=51	=51
!LO:TX:t=P:problem: mixed beam	!
!	!LO:SIC:o:s:v:t=znak przedzielający takt na "pół"
8d\L 8B-\	4b-\
!	!LO:SIC:o:s:v:t=znak przedzielający takt na "pół"
8BB-/J	.
8r	8cc\ 8a\
=52	=52
8F\L	8.cc\L 8.a\
8c\J 8A\	.
.	16b-\K 16g#X\
8ryy	8cc\J 8a\
=53	=53
*rep	*
8F\L	8cc\L 8a\
8c\J 8A\	8ff\
8ryy	8aa\J
*Xrep	*
=54	=54
8D\L	8.cc\ 8.b-\ 8.g\
8r	.
.	16dd/KL 16a/ 16f#X/
!	!LO:SIC:o:s:v:t=trzy kreseczki nad nutą
8B-\J 8G\ 8E-\	8cc/J 8a/ 8g/
!!LO:LB:g=original
=55	=55
*rep	*
!	!LO:N:vis=4
8D\L	8cc/ 8b-/ 8g/
8r	8gg\L
!	!LO:SIC:o:s:v:t=trzy kreseczki nad nutą
8B-\J 8G\ 8E-\	8bb-\J
*Xrep	*
=56	=56
8F/ 8FF/	8.cc\L 8.a\
16c\LL 16A\ 16F\	.
16c\JJ 16A\ 16F\	16bn\K 16g#X\
8c\ 8A\ 8F\	8cc\J 8a\
=57	=57
*rep	*
8F/ 8FF/	8cc\L 8a\
16c\LL 16A\ 16F\	8ff\
16c\JJ 16A\ 16F\	.
8c\ 8A\ 8F\	8aa\J
*Xrep	*
=58	=58
8C\L	16bb-\LL
.	16aa\
8r	16gg\
.	16ff\
!	!LO:SIC:o:s:v:t=dwie kreeczki nad nutą
8B-\J 8G\ 8E-\	16een\
.	16dd\JJ
=59	=59
*tremolo	*
8B-\ 8G\ 8E-\ 8C\L	16cc\LL
.	16bn\
8B-\ 8G\ 8E-\ 8C\	16dd\
.	16cc\
8B-\ 8G\ 8E-\ 8C\J	16b-X\
.	16g\JJ
*Xtremolo	*
=60	=60
8C\L	16bb-\LL
.	16aa\
8B-\ 8G\ 8E-\	16gg\
.	16ff\
8B-\J 8G\ 8E-\	16een\
.	16gg\JJ
=61	=61
!LO:TX:t=P:problem: mixed beam	!
8A\L 8F\	8ff\
!	!LO:SIC:o:s:v:t=podwójna kreska taktowa z obustronną repetycją
8FF/J	4r
8r	.
==:|!	==:|!
*-	*-
!!!system-decoration: {s1},{s2}
!!!AIN: 1 piano
!!!ENC: Andrzej Gręziak
!!!END: 2020-06-16
!!!ENC: Leszek Kubiak
!!!END: 2022-01-12
